X:10206
%7976
T:Jig of Slurs, The
R:jig
Z:id:hn-jig-94
M:6/8
K:Cmaj
Gcc cBc|Acc Gcc|Acc Gcc|Add dcA|Gcc cBc|Acc Gcc|Acc Bcd|ecc cBA:|
|:G2e ede|gee edc|Add dcd|~dcA
%Error : Bar 12 is 3/8 not 6/8
|Gcc cBc|Acc Gcc|Acc Bcd|ecc cBA:|
